X:16024
T:Perfect Cure
R:Jig
C:Jonathan Blewitt (1782-1853)
O:England
Z:Paul Hardy's Session Tunebook 2022 (see www.paulhardy.net). Creative Commons cc by-nc-sa licenced.
M:6/8
L:1/8
Q:3/8=100
K:D
A2G|"D"FGA D2d|"G"c2B "A"A2G|"D"FGA D2F|"A"E3 A2G|"D"FGA D2d|"G"Bcd "A"A2G|"D"FGA "A7"B2c|"D"d3:|
|:d2e|"D"fed "A"e2c|"G"dcB "A"A2e|"D"fed "A"c2d|"E"e3 "A7"a2g|"D"fed "A"e2c|"G"dcB "A"A2G|"D"FGA "A7"B2c|"D"d3:|

